X:1
T:James Gibb editions
T:The day is past and over - Barnby
%%score [ ( 1 2 ) ( 3 4 ) ]
L:1/8
Q:1/4=84
M:4/4
K:F
V:1 treble nm="Midi_74"
V:2 treble 
V:3 bass nm="Midi_74"
V:4 bass 
V:1
"^The day is past and over""^76. 76. 88""^John Mason Neale\n(1818-66)""^Joseph Barnby\n(1838-96)"!mf! c2 | %1
w: |
 A2 G2 F2 F2 | F4 F2 || F2 | G2!<(! A2 B2!<)!!>(! (AG)!>)! | A6 ||[M:4/4] A2 | G2 G2 c2 =B2 | %8
w: |||||We|pray * * *|
 A4 A2 || A2 | G2 A2 A2 =B2 |"^rall."!<(! c6!<)! || c2 |!>(! !>!c3 c!>)!!p! F2 F2 | B3 B A2 || %15
w: ||||O|Je- su, keep us|in Thy sight,|
!pp! A2 | A3 A G2 D2 | F4 E4 | F8 || B4 A4 |] %20
w: And|guard us~~ through the|com- ing|night.|A- men.|
V:2
 E2 | F2 C2 C2 F2 | (E2 D2) C2 || F2 | F2 F2 F2 E2 | F6 ||[M:4/4] E2 | D2 G2 G2 G2 | (G2 F2) C2 || %9
w: The|day is past and|o\- * ver;|All|thanks, O Lord, to|Thee!||||
 D2 | E2 E2 F2 F2 | E2 C2 D2 || _E2 | _E4 D4 | D3 D ^C2 || ^C2 | D2 !courtesy!=C2 =B,2 B,2 | %17
w: ||be. O Je-|su,|keep us||||
 !courtesy!_B,6 B,2 | A,8 || D4 C4 |] %20
w: |||
V:3
!mf! G,2 | A,2 B,2 A,2 C2 | (C2 B,2) A,2 || A,2 | D2 C2 B,2 B,2 | A,2 D2 C2- ||[M:4/4] C2 | %7
w: |||||* We pray||
w: |||||||
 C2 =B,2 C2 C2 | C4 C2 || C2 | C2 C2 C2 =B,A, | G,6 || G,2 | !>!G,2 F,2!p! F,2 F,2 | %14
w: |||||||
w: * Thee now, that|sin- less|The|hours of dark may *|be:|O|Je- su, keep us|
"^2. The joys of day are over; \nwe lift our hearts to thee, \nand call on thee that sinless \nthe hours of dark may be. \nO Jesu, make their darkness light, \nand guard us through the coming night. \n\n3. The toils of day are over; \nwe raise our hymn to thee, \nand ask that free from peril \nthe hours of dark may be. \nO Jesu, keep us in thy sight, \nand guard us through the coming night." F,2 E,2 E,2 || %15
w: |
w: |
!pp! E,2 | %16
w: |
w: |
 ^F,3 F, G,2"^4. Be thou our souls' preserver, \nO God, for thou dost know \nhow many are the perils \nthrough which we have to go. \nLord Jesus Christ, O hear our call, \nand guard and save us from them all." G,2 | %17
w: |
w: |
 G,6 G,2 | F,8 || F,4 F,4 |] %20
w: |||
w: |||
V:4
 C,2 | F,2 F,2 F,2 A,,2 | B,,4 F,2 || D,2 | B,,2 A,,2 G,,2 C,2 | F,6 ||[M:4/4] F,2 | %7
w: ||||||We|
 F,2 F,2 E,2 E,2 | F,4 F,2 || F,2 | G,2 G,2 G,2 G,,2 | C,6 || !courtesy!_B,,2 | %13
w: pray * * *||||||
 A,,3 A,, B,,2 A,,2 | G,,3 G,, A,,2 || A,,2 | D,3 D, G,,2 G,,2 | C,6 C,2 | F,,8 || B,,4 F,,4 |] %20
w: |||||||

